dhis-2/dhis-support/dhis-support-system/src/main/resources/SVGs/pills_2_outline.svg

<svg width="48" height="48" viewBox="0 0 48 48" fill="none" xmlns="http://www.w3.org/2000/svg">
<path fill-rule="evenodd" clip-rule="evenodd" d="M13.2708 4.00397C10.5008 4.08167 7.81746 5.37125 6.03508 7.66412C5.43039 8.40501 5.87958 8.66301 6.29868 8.89841L21.2185 17.2889C21.6335 17.5219 22.1155 17.5969 22.4275 16.8379C23.4435 14.1259 23.1425 11.173 21.7655 8.77151C20.9385 7.32993 19.7255 6.08834 18.1795 5.21685C16.6275 4.34726 14.9336 3.95737 13.2706 4.00397H13.2708ZM13.4358 4.49226C14.9898 4.48916 16.5647 4.87486 17.9707 5.66805C19.3717 6.46284 20.4687 7.59232 21.2207 8.90231C22.4727 11.085 23.0397 13.6499 22.1287 16.1069C21.8487 16.7949 21.6687 16.9509 21.2927 16.7379L6.67787 8.52341C6.29788 8.30872 6.15828 8.32671 6.70297 7.65622C8.30855 5.58135 10.8438 4.49736 13.4358 4.49226ZM5.19519 9.5664C4.98299 9.6059 4.7857 9.7739 4.6269 10.16C2.98982 14.5039 4.74 19.4719 8.86895 21.7968C12.9938 24.1088 18.1337 23.0268 20.9898 19.3849C21.3118 18.9969 21.3548 18.7399 21.2618 18.5449C21.1678 18.3499 20.9338 18.2189 20.7008 18.0879L5.85298 9.7383C5.63469 9.6151 5.40759 9.5269 5.19529 9.5664H5.19519ZM5.46079 10.127C5.53509 10.132 5.61679 10.162 5.71079 10.215L20.3276 18.4319C20.5176 18.5389 20.6456 18.5869 20.6596 18.6929C20.6736 18.7989 20.5746 18.9619 20.3026 19.2969C17.7336 22.6168 12.7807 23.4038 9.03274 21.2889C7.63186 20.4939 6.53248 19.3629 5.78098 18.0529C4.529 15.8709 3.96321 13.303 4.8748 10.846C5.08459 10.33 5.23809 10.113 5.46069 10.127H5.46079ZM34.7244 25.0058C33.0634 24.9558 31.3695 25.3388 29.8175 26.2008C25.6765 28.5128 23.9146 33.4797 25.5485 37.8296C25.8635 38.7326 26.3175 38.4856 26.7375 38.2516L41.6963 29.9277C42.1123 29.6957 42.4283 29.3248 41.9443 28.6618C40.1654 26.3768 37.4914 25.0888 34.7244 25.0058ZM34.5504 25.5368C37.0644 25.6118 39.5484 26.4728 41.1653 28.5348C41.6053 29.1338 41.6433 29.3668 41.2653 29.5757L26.6165 37.7316C26.2345 37.9436 26.1785 38.0726 25.8925 37.2577C24.4076 33.3307 26.3295 28.7018 30.0935 26.6148C31.5035 25.8368 33.0404 25.4918 34.5504 25.5368ZM42.7883 30.5487C42.5733 30.5267 42.3403 30.6567 42.1063 30.7867L27.2225 39.0696C26.7835 39.3136 26.4465 39.6606 26.9385 40.3356C29.7835 44.0036 34.9334 45.1126 39.0754 42.8106C43.2043 40.5056 44.9713 35.5607 43.3623 31.2207C43.2003 30.7437 43.0033 30.5707 42.7883 30.5487ZM42.6013 31.1387C42.6983 31.1817 42.7843 31.3517 42.9273 31.7597C44.4123 35.6857 42.4913 40.3166 38.7284 42.4036C37.3174 43.1816 35.7784 43.5276 34.2694 43.4816C31.7545 43.4076 29.2705 42.5466 27.6535 40.4836C27.2135 39.8856 27.1765 39.6506 27.5545 39.4406L42.2023 31.2847C42.3933 31.1797 42.5033 31.0947 42.6013 31.1387Z" fill="#333333"/>
</svg>

<?xml version="1.0" encoding="UTF-8" standalone="no"?>
<!-- Created with Inkscape (http://www.inkscape.org/) -->
<svg id="svg8" xmlns:rdf="http://www.w3.org/1999/02/22-rdf-syntax-ns#" xmlns="http://www.w3.org/2000/svg" height="48" viewBox="0 0 12.7 12.7" width="48" version="1.1" xmlns:cc="http://creativecommons.org/ns#" xmlns:dc="http://purl.org/dc/elements/1.1/">
 <title id="title4753">UIO-icon</title>
 <metadata id="metadata5">
  <rdf:RDF>
   <cc:Work rdf:about="">
    <dc:format>image/svg+xml</dc:format>
    <dc:type rdf:resource="http://purl.org/dc/dcmitype/StillImage"/>
    <dc:title>UIO-icon</dc:title>
    <dc:creator>
     <cc:Agent>
      <dc:title>Joaquín Urbano</dc:title>
     </cc:Agent>
    </dc:creator>
    <dc:rights>
     <cc:Agent>
      <dc:title>GPL</dc:title>
     </cc:Agent>
    </dc:rights>
   </cc:Work>
  </rdf:RDF>
 </metadata>
 <path id="path831" d="m13.271 4.0039c-2.77 0.0777-5.4534 1.3673-7.2358 3.6602-0.6047 0.7409-0.1555 0.9989 0.2636 1.2343l14.92 8.3906c0.415 0.233 0.897 0.308 1.209-0.451 1.016-2.712 0.715-5.665-0.662-8.0665-0.827-1.4416-2.04-2.6832-3.586-3.5547-1.552-0.8696-3.246-1.2595-4.909-1.2129zm0.165 0.4883c1.554-0.0031 3.129 0.3826 4.535 1.1758 1.401 0.7948 2.498 1.9243 3.25 3.2343 1.252 2.1827 1.819 4.7477 0.908 7.2047-0.28 0.688-0.46 0.844-0.836 0.631l-14.615-8.2146c-0.38-0.2147-0.5196-0.1967 0.0251-0.8672 1.6056-2.0749 4.1409-3.1589 6.7329-3.164zm-8.2407 5.0742c-0.2122 0.0395-0.4095 0.2075-0.5683 0.5936-1.6371 4.344 0.1131 9.312 4.2421 11.637 4.1249 2.312 9.2649 1.23 12.121-2.412 0.322-0.388 0.365-0.645 0.272-0.84-0.094-0.195-0.328-0.326-0.561-0.457l-14.848-8.3497c-0.2183-0.1232-0.4454-0.2114-0.6577-0.1719zm0.2656 0.5606c0.0743 0.005 0.156 0.035 0.25 0.088l14.617 8.217c0.19 0.107 0.318 0.155 0.332 0.261s-0.085 0.269-0.357 0.604c-2.569 3.32-7.522 4.107-11.27 1.992-1.4009-0.795-2.5003-1.926-3.2518-3.236-1.252-2.182-1.8178-4.75-0.9062-7.207 0.2098-0.516 0.3633-0.733 0.5859-0.719zm29.264 14.879c-1.661-0.05-3.355 0.333-4.907 1.195-4.141 2.312-5.903 7.279-4.269 11.629 0.315 0.903 0.769 0.656 1.189 0.422l14.959-8.324c0.416-0.232 0.732-0.603 0.248-1.266-1.779-2.285-4.453-3.573-7.22-3.656zm-0.174 0.531c2.514 0.075 4.998 0.936 6.615 2.998 0.44 0.599 0.478 0.832 0.1 1.041l-14.649 8.156c-0.382 0.212-0.438 0.341-0.724-0.474-1.485-3.927 0.437-8.556 4.201-10.643 1.41-0.778 2.947-1.123 4.457-1.078zm8.238 5.012c-0.215-0.022-0.448 0.108-0.682 0.238l-14.884 8.283c-0.439 0.244-0.776 0.591-0.284 1.266 2.845 3.668 7.995 4.777 12.137 2.475 4.129-2.305 5.896-7.25 4.287-11.59-0.162-0.477-0.359-0.65-0.574-0.672zm-0.187 0.59c0.097 0.043 0.183 0.213 0.326 0.621 1.485 3.926-0.436 8.557-4.199 10.644-1.411 0.778-2.95 1.124-4.459 1.078-2.515-0.074-4.999-0.935-6.616-2.998-0.44-0.598-0.477-0.833-0.099-1.043l14.648-8.156c0.191-0.105 0.301-0.19 0.399-0.146z" fill-rule="evenodd" transform="scale(.26458)" stroke-width=".99999" fill="#333"/>
</svg>
